X:25
T: The Lads Of Laois
R: reel
M: 4/4
L: 1/8
K: Emin
|:"Em"EB,B,2 EGFE| "D"DA, A,2 DEFD| "Em"E2 FD EFGA|B2 e^c "D"d^cBA|
  "Em"EB,B,2 EGFE| "D"DA, A,2 DEFD| "Em"E2 BE dEBE| "D"DEFA "Em"BE E2:|
|:"Em"eBB2 egfe| "D"defa gfed| "G"Bdef gfea| "D"afdf gfed|
"Em"eBB2 "(G)"GB"(D)"FA| "Em"EBBA Bdef|"G"g2ge "D"f2fd| efed BAFD:|

